X: 30974
T: Oyster Wife's Rant, The
R: reel
M: 4/4
K: Adorian
a|edef g2f<g|B<Gd>B d>GG>a|edef g2f<g|B<Gd>B A>AA>a|
edef g2f<g|B<Gd>B d>GG>a|edef gaeg|dBgB AA A||
a|eAed eAAg|B<Gd>B d>BG>a|eAed eAAg|B<Gd>B A>AA>a|
edef g2 f>e|d<gB<g d<gB<a|edef gaeg|dBgB AA A||
a|edef g2fg|BGdB dGGa|edef g2fg|BGdB AAAa|
edef g2fg|BGdB dGGa|edef gaeg|dBgB AA A||
a|eAed eAAg|BGdB dBGa|eAed eAAg|BGdB AAAa|
edef g2 fe|dgBg dgBa|edef gaeg|dBgB AA A||

